X: 1
T: Peter and Doreen Chiasson
C: Brenda Stubbert
R: march
Q: "slow march"
Z: 2014 John Chambers <jc:trillian.mit.edu>
S: printed page of unknown origin from Concord Slow Scottish Session collection
N: The original has half as many bar lines.
M: 2/4
L: 1/8
K: D
F>G |\
{FG}A3 B TA>G F<E | D3 d d2 ef |\
g3 e Tg>f e<d | c2{d}e2 Te2 F>G |
{EF}A3 B TA>G F<E | D3 d d2 ef |\
{a}g>e g<b a>g f<e | {A}d4 d2 :|
|: f>g |\
{g}a3 d g>f e<d | B2 d2 d3 B |\
TA>F A<d f>a g<f | {d}e4 Te2\
[1fg |\
{g}a3 d g>f e<d | B2 d2 d3 B |
TA>F A<d c<e (3(ABc) | d2 D2 D2 :|\
[2 F>G |\
{EF}A3 B TA>G F<E | D3 d d2 ef |\
{a}g>e g<b a>g f<e | {A}d4 d2 |]
